assets/icons/qvision/fiber_new.svg

<svg xmlns="http://www.w3.org/2000/svg" enable-background="new 0 0 24 24" height="24" viewBox="0 0 24 24" width="24"><g><rect fill="none" height="24" width="24" x="0"/></g><g><g><g><path d="M20,4H4C2.89,4,2.01,4.89,2.01,6L2,18c0,1.11,0.89,2,2,2h16c1.11,0,2-0.89,2-2V6C22,4.89,21.11,4,20,4z M8.5,15H7.3 l-2.55-3.5V15H3.5V9h1.25l2.5,3.5V9H8.5V15z M13.5,10.26H11v1.12h2.5v1.26H11v1.11h2.5V15h-4V9h4V10.26z M20.5,14 c0,0.55-0.45,1-1,1h-4c-0.55,0-1-0.45-1-1V9h1.25v4.51h1.13V9.99h1.25v3.51h1.12V9h1.25V14z"/></g></g></g></svg>

<svg width="24" height="24" viewBox="0 0 24 24" fill="none" xmlns="http://www.w3.org/2000/svg">
<g clip-path="url(#clip0_147_1435)">
<path d="M20 4H4C2.89 4 2.01 4.89 2.01 6L2 18C2 19.11 2.89 20 4 20H20C21.11 20 22 19.11 22 18V6C22 4.89 21.11 4 20 4ZM8.5 15H7.3L4.75 11.5V15H3.5V9H4.75L7.25 12.5V9H8.5V15ZM13.5 10.26H11V11.38H13.5V12.64H11V13.75H13.5V15H9.5V9H13.5V10.26ZM20.5 14C20.5 14.55 20.05 15 19.5 15H15.5C14.95 15 14.5 14.55 14.5 14V9H15.75V13.51H16.88V9.99H18.13V13.5H19.25V9H20.5V14Z" fill="#323232"/>
</g>
<defs>
<clipPath id="clip0_147_1435">
<rect width="24" height="24" fill="white"/>
</clipPath>
</defs>
</svg>
